!!!OTL: Z LAUTERBACH HAB I MEI STRUMPF VERLOREN
!!!ARE: Europa, Mitteleuropa, Tirol
!!!SCT: Z1207
!!!YEM: Copyright 1995, estate of Helmut Schaffrath.
**kern
*ICvox
*Ivox
*M2/4
*k[]
*C:
=1
{8.G
16G
4c
=2
8.A
16A
4F
=3
8.G
16G
4G}
=4
{8.f
16f
4e
=5
8.d
16d
4G
=6
8G
16G
16e
4c}
=7
{8.G
16G
4c
=8
8.A
16A
4F
=9
8.G
16G
4G}
=10
{8.f
16f
4e
=11
8.d
16d
4G
=12
4c
4r}
==
!!!AGN: Liebes - Lied
!!!ONB: ESAC (Essen Associative Code) Database: ZUCCAL
!!!AMT: simple duple
!!!AIN: vox
!!!EED: Helmut Schaffrath
!!!EEV: 1.0
*-
